icons/svg/folder-multiple-outline.svg

<svg xmlns="http://www.w3.org/2000/svg" version="1.1" baseProfile="full" width="24" height="24" viewBox="0 0 24.00 24.00" xml:space="preserve"><path fill="#000" fill-opacity="1" stroke-width=".2" stroke-linejoin="round" d="M22 4c1.1 0 2 .9 2 2v10c0 1.1-.9 2-2 2H6c-1.1 0-2-.9-2-2l.01-12c0-1.1.89-2 1.99-2h6l2 2h8zM2 6v14h18v2H2c-1.1 0-2-.9-2-2l.01-9H0V6h2zm4 0v10h16V6H6z"/></svg>

﻿<?xml version="1.0" encoding="utf-8"?>
<!DOCTYPE svg PUBLIC "-//W3C//DTD SVG 1.1//EN" "http://www.w3.org/Graphics/SVG/1.1/DTD/svg11.dtd">
<svg xmlns="http://www.w3.org/2000/svg" xmlns:xlink="http://www.w3.org/1999/xlink" version="1.1" baseProfile="full" width="24" height="24" viewBox="0 0 24.00 24.00" enable-background="new 0 0 24.00 24.00" xml:space="preserve">
	<path fill="#000000" fill-opacity="1" stroke-width="0.2" stroke-linejoin="round" d="M 22,4C 23.1,4 24,4.9 24,6L 24,16C 24,17.1 23.1,18 22,18L 6,18C 4.9,18 4,17.1 4,16L 4.01,4C 4.01,2.9 4.9,2 6,2L 12,2L 14,4L 22,4 Z M 2,6.00001L 2,20L 20,20L 20,22L 2,22C 0.900001,22 -3.97364e-008,21.1 -3.97364e-008,20L 0.0100021,11L -3.97364e-008,11L -3.97364e-008,6.00001L 2,6.00001 Z M 6,6L 6,16L 22,16L 22,6L 6,6 Z "/>
</svg>
